assets/svg/1F512.svg

<svg xmlns="http://www.w3.org/2000/svg" viewBox="0 0 64 64" enable-background="new 0 0 64 64"><g transform="translate(4)"><path d="m28.21.021c-14.561-.621-26.479 12.865-26.15 26.895.03 1.407 1.148 2.581 2.579 2.581.895 0 1.785 0 2.684 0 .669 0 1.199-.214 1.596-.551.595-.406 1-1.075.985-2.03-.63-24.509 37.23-24.509 36.604 0-.032 1.407 1.204 2.581 2.583 2.581.895 0 1.79 0 2.68 0 1.435 0 2.551-1.174 2.583-2.581.354-14.966-11.62-26.27-26.15-26.895" fill="#989897"/><path d="m.83 64c11.154 0 22.311 0 33.468 0 7.094 0 14.185 0 21.278 0 .459 0 .832-.272.832-.588 0-8.02 0-16.05 0-24.08 0-4.587 0-9.183 0-13.774 0-.318-.373-.586-.832-.586-11.15 0-22.302 0-33.459 0-7.098 0-14.191 0-21.287 0-.247 0-.436.06-.565.157 0 0-.009.009-.014.018-.014 0-.021.005-.028.021-.133.085-.223.219-.223.39 0 8.03 0 16.05 0 24.08 0 4.592 0 9.186 0 13.779 0 .316.38.588.83.588" fill="#f79421"/><path d="m55.58 24.97h-11.339c9.04 22.434-12.503 34.831-30.11 38.673-.284.062-.528.232-.791.357h42.24c.459 0 .832-.272.832-.588v-37.856c0-.319-.373-.586-.832-.586" fill="#e18327"/></g></svg>

<?xml version="1.0" encoding="UTF-8" standalone="no"?>
<!-- Generator: Adobe Illustrator 16.0.0, SVG Export Plug-In . SVG Version: 6.00 Build 0)  -->

<svg
   xmlns:dc="http://purl.org/dc/elements/1.1/"
   xmlns:cc="http://creativecommons.org/ns#"
   xmlns:rdf="http://www.w3.org/1999/02/22-rdf-syntax-ns#"
   xmlns:svg="http://www.w3.org/2000/svg"
   xmlns="http://www.w3.org/2000/svg"
   xmlns:sodipodi="http://sodipodi.sourceforge.net/DTD/sodipodi-0.dtd"
   xmlns:inkscape="http://www.inkscape.org/namespaces/inkscape"
   version="1.1"
   id="Layer_1"
   x="0px"
   y="0px"
   width="64px"
   height="64px"
   viewBox="0 0 64 64"
   enable-background="new 0 0 64 64"
   xml:space="preserve"
   inkscape:version="0.48.5 r10040"
   sodipodi:docname="1F512.svg"
   inkscape:export-filename="D:\TESTINGEMOJI\SVGTEST\1F512.png"
   inkscape:export-xdpi="90"
   inkscape:export-ydpi="90"><metadata
   id="metadata4827"><rdf:RDF><cc:Work
       rdf:about=""><dc:format>image/svg+xml</dc:format><dc:type
         rdf:resource="http://purl.org/dc/dcmitype/StillImage" /><dc:title></dc:title></cc:Work></rdf:RDF></metadata><defs
   id="defs4825" /><sodipodi:namedview
   pagecolor="#ffffff"
   bordercolor="#666666"
   borderopacity="1"
   objecttolerance="10"
   gridtolerance="10"
   guidetolerance="10"
   inkscape:pageopacity="0"
   inkscape:pageshadow="2"
   inkscape:window-width="640"
   inkscape:window-height="480"
   id="namedview4823"
   showgrid="false"
   inkscape:zoom="3.6875"
   inkscape:cx="32"
   inkscape:cy="32"
   inkscape:window-x="312"
   inkscape:window-y="255"
   inkscape:window-maximized="0"
   inkscape:current-layer="Layer_1" />
<g
   id="g4815"
   transform="translate(4,0)">
	<path
   d="M 28.206,0.021 C 13.645,-0.6 1.727,12.886 2.059,26.916 c 0.03,1.407 1.148,2.581 2.579,2.581 0.895,0 1.785,0 2.684,0 0.669,0 1.199,-0.214 1.596,-0.551 0.595,-0.406 1.003,-1.075 0.985,-2.03 -0.63,-24.509 37.235,-24.509 36.604,0 -0.032,1.407 1.204,2.581 2.583,2.581 0.895,0 1.79,0 2.68,0 1.435,0 2.551,-1.174 2.583,-2.581 C 54.707,11.95 42.733,0.644 28.206,0.021 z"
   id="path4817"
   inkscape:connector-curvature="0"
   style="fill:#989897" />
	<path
   d="m 0.83,64 c 11.154,0 22.311,0 33.468,0 7.094,0 14.185,0 21.278,0 0.459,0 0.832,-0.272 0.832,-0.588 0,-8.025 0,-16.051 0,-24.082 0,-4.587 0,-9.183 0,-13.774 0,-0.318 -0.373,-0.586 -0.832,-0.586 -11.15,0 -22.302,0 -33.459,0 -7.098,0 -14.191,0 -21.287,0 -0.247,0 -0.436,0.06 -0.565,0.157 0,0 -0.009,0.009 -0.014,0.018 -0.014,0 -0.021,0.005 -0.028,0.021 C 0.09,25.251 0,25.385 0,25.556 0,33.583 0,41.609 0,49.633 0,54.225 0,58.819 0,63.412 0,63.728 0.38,64 0.83,64 z"
   id="path4819"
   inkscape:connector-curvature="0"
   style="fill:#f79421" />
	<path
   d="M 55.576,24.97 H 44.237 C 53.281,47.404 31.734,59.801 14.131,63.643 13.847,63.705 13.603,63.875 13.34,64 h 42.236 c 0.459,0 0.832,-0.272 0.832,-0.588 V 25.556 c 0,-0.319 -0.373,-0.586 -0.832,-0.586 z"
   id="path4821"
   inkscape:connector-curvature="0"
   style="fill:#e18327" />
</g>
</svg>
